X: 1
T: Ho Ro My Nut-Brown Maiden
R: march
Z: 2004 John Chambers <jc:trillian.mit.edu>
M: C|
L: 1/8
K: D
A2 \
| "D"d3c B2A2 | d4 A2d2 | f3d "Bm"g2f2 | "Em"f2e2 "A7"e2g2 \
| "D"fa3 fa3 | A4 "Bm"d2e2 | "Em"f3f "A7"g2e2 | "D"d4-d2 |]
f2 \
| "D"a3b a2f2 | a4 f2g2 | a3b "Bm"a2f2 | "Em"e4 "A7"e2g2 \
| "D"fa3 fa3 | A4 "Bm"d2e2 | "Em"f3f "A7"g2e2 | "D"d4-d2 |]
